src/assets/skills_gitlab.svg

<?xml version="1.0" encoding="utf-8"?><!-- Uploaded to: SVG Repo, www.svgrepo.com, Generator: SVG Repo Mixer Tools -->
<svg width="800px" height="800px" viewBox="0 0 24 24" fill="none" xmlns="http://www.w3.org/2000/svg">
<path fill-rule="evenodd" clip-rule="evenodd" d="M5.45344 3.3395C5.70395 3.11818 6.02498 3 6.35252 3C6.68005 3 7.00108 3.11818 7.2516 3.3395C7.25863 3.34571 7.26557 3.35202 7.27243 3.35843C7.43524 3.51064 7.55906 3.70268 7.6293 3.91856L9.16251 8.47062C9.29953 8.87744 9.68091 9.15142 10.1102 9.15142H13.8549C14.2845 9.15142 14.6661 8.87706 14.8029 8.46985L16.339 3.89696C16.345 3.87917 16.3515 3.86155 16.3584 3.84412C16.4373 3.6469 16.5615 3.47351 16.7184 3.33626C16.9684 3.11703 17.2879 3 17.6138 3C17.9414 3 18.2624 3.11818 18.5129 3.3395C18.5199 3.34571 18.5269 3.35202 18.5337 3.35843C18.6967 3.51075 18.8206 3.70295 18.8908 3.91902L20.8808 9.84304L21.9167 12.8095C21.9215 12.8232 21.926 12.837 21.9302 12.8509C22.0356 13.2009 22.0212 13.5751 21.8901 13.9158C21.7631 14.2456 21.5352 14.5224 21.2447 14.7122L13.7084 20.0097C12.6733 20.7372 11.293 20.7372 10.258 20.0097L2.7047 14.7003L2.70013 14.6971C2.41336 14.4931 2.195 14.2024 2.08286 13.8625C1.97101 13.5236 1.97246 13.1582 2.08682 12.8202L3.08366 9.83299L5.07768 3.89696C5.08366 3.87917 5.09014 3.86155 5.09711 3.84412C5.17596 3.64691 5.30022 3.47351 5.45712 3.33626L5.45344 3.3395Z" 
    fill="#3fbac2"/>
</svg>

<!-- Uploaded to: SVG Repo, www.svgrepo.com, Generator: SVG Repo Mixer Tools -->
<svg xmlns="http://www.w3.org/2000/svg" fill="none" viewBox="0 0 24 24">
  <path fill="#3fbac2" fill-rule="evenodd" d="M5.453 3.34a1.358 1.358 0 0 1 1.82.018c.162.153.286.345.356.56l1.534 4.553a1 1 0 0 0 .947.68h3.745a1 1 0 0 0 .948-.681l1.536-4.573a1.332 1.332 0 0 1 .38-.56 1.358 1.358 0 0 1 1.815.021c.163.153.287.345.357.561l1.99 5.924 1.036 2.966a1.644 1.644 0 0 1-.027 1.106c-.127.33-.355.607-.645.797l-7.537 5.298a3 3 0 0 1-3.45 0L2.705 14.7l-.005-.003a1.665 1.665 0 0 1-.617-.834 1.643 1.643 0 0 1 .004-1.043l.997-2.987 1.994-5.936a1.332 1.332 0 0 1 .38-.56l-.005.003Z" clip-rule="evenodd"/>
</svg>
